SVG_Azure_All/ExpressRoute Authorisation.svg

<?xml version="1.0" encoding="UTF-8" standalone="no"?>
<!-- Generated by Microsoft Visio, SVG Export ExpressRoute Authorisation.svg Page-1 -->

<svg
   xmlns:dc="http://purl.org/dc/elements/1.1/"
   xmlns:cc="http://creativecommons.org/ns#"
   xmlns:rdf="http://www.w3.org/1999/02/22-rdf-syntax-ns#"
   xmlns:svg="http://www.w3.org/2000/svg"
   xmlns="http://www.w3.org/2000/svg"
   xmlns:sodipodi="http://sodipodi.sourceforge.net/DTD/sodipodi-0.dtd"
   xmlns:inkscape="http://www.inkscape.org/namespaces/inkscape"
   width="0.78735989in"
   height="0.78735989in"
   viewBox="0 0 56.689997 56.689997"
   xml:space="preserve"
   class="st2"
   version="1.1"
   id="svg19"
   sodipodi:docname="ExpressRoute Authorisation.svg"
   style="font-size:12px;overflow:visible;color-interpolation-filters:sRGB;fill:none;fill-rule:evenodd;stroke-linecap:square;stroke-miterlimit:3"
   inkscape:version="0.92.5 (2060ec1f9f, 2020-04-08)"><metadata
   id="metadata25"><rdf:RDF><cc:Work
       rdf:about=""><dc:format>image/svg+xml</dc:format><dc:type
         rdf:resource="http://purl.org/dc/dcmitype/StillImage" /></cc:Work></rdf:RDF></metadata><defs
   id="defs23" /><sodipodi:namedview
   pagecolor="#ffffff"
   bordercolor="#666666"
   borderopacity="1"
   objecttolerance="10"
   gridtolerance="10"
   guidetolerance="10"
   inkscape:pageopacity="0"
   inkscape:pageshadow="2"
   inkscape:window-width="640"
   inkscape:window-height="480"
   id="namedview21"
   showgrid="false"
   inkscape:zoom="1.3289007"
   inkscape:cx="37.795279"
   inkscape:cy="37.791271"
   inkscape:window-x="0"
   inkscape:window-y="0"
   inkscape:window-maximized="0"
   inkscape:current-layer="svg19" />
	<style
   type="text/css"
   id="style2">
	<![CDATA[
		.st1 {fill:#000000;stroke:none;stroke-linecap:butt;stroke-width:38.25}
		.st2 {fill:none;fill-rule:evenodd;font-size:12px;overflow:visible;stroke-linecap:square;stroke-miterlimit:3}
	]]>
	</style>

	<g
   id="g17"
   transform="translate(-38.25,-38.25)">
		<title
   id="title4">Page-1</title>
		<g
   id="group4711-1"
   transform="translate(38.25,-38.25)">
			<title
   id="title6">ExpressRoute Authorisation</title>
			<g
   id="group4712-2">
				<title
   id="title8">Sheet.4712</title>
				<g
   id="shape4713-3">
					<title
   id="title10">Sheet.4713</title>
					<path
   d="m 18.43,101.66 c 0,-1.07 -0.36,-2.13 -0.36,-2.84 a 7.79528,7.79528 0 0 1 -0.35,-2.83 27.2835,27.2835 0 0 1 0.71,-5.32 13.4646,13.4646 0 0 1 2.12,-4.6 15.5906,15.5906 0 0 1 2.84,-3.9 l 3.89,-3.19 4.61,-1.77 5.31,-0.71 5.32,0.71 a 13.4646,13.4646 0 0 1 4.61,2.12 l 3.89,2.84 3.19,3.9 a 24.4488,24.4488 0 0 1 1.77,4.6 27.2835,27.2835 0 0 1 0.71,5.32 27.2835,27.2835 0 0 1 -0.71,5.31 24.4488,24.4488 0 0 1 -1.77,4.61 l -3.19,3.9 -3.89,3.19 -4.61,1.77 -5.32,0.71 -4.6,-0.71 -4.25,-1.42 v 5.67 h -7.09 v 7.09 h -7.09 v 7.08 H 0 V 120.08 Z M 3.54,129.65 h 7.09 v -7.09 h 7.09 v -7.08 h 7.08 v -7.09 h 2.48 a 11.6929,11.6929 -180 0 0 4.61,2.48 14.1732,14.1732 -180 0 0 5.31,1.06 13.8189,13.8189 -180 0 0 6.38,-1.41 14.8819,14.8819 -180 0 0 4.96,-3.19 14.8819,14.8819 -180 0 0 3.19,-4.96 13.8189,13.8189 -180 0 0 1.42,-6.38 11.6929,11.6929 -180 0 0 -1.42,-6.03 13.4646,13.4646 -180 0 0 -3.19,-5.31 14.8819,14.8819 -180 0 0 -4.96,-3.19 13.8189,13.8189 -180 0 0 -6.38,-1.42 11.6929,11.6929 -180 0 0 -6.02,1.42 13.4646,13.4646 -180 0 0 -5.31,3.19 14.8819,14.8819 -180 0 0 -3.19,4.96 13.8189,13.8189 -180 0 0 -1.42,6.38 9.92126,9.92126 -180 0 0 0.35,3.19 l 1.07,3.19 L 3.54,121.5 Z M 43.94,87.48 45,88.19 c 0.35,0.36 0.71,0.71 0.71,1.07 a 2.12598,2.12598 0 0 1 0.35,1.41 2.12598,2.12598 0 0 1 -0.35,1.42 L 45,93.15 43.94,93.86 H 41.1 l -1.06,-0.71 -0.71,-1.06 a 2.12598,2.12598 0 0 1 -0.35,-1.42 2.12598,2.12598 0 0 1 0.35,-1.41 c 0,-0.36 0.36,-0.71 0.71,-1.07 l 1.06,-0.71 z"
   class="st1"
   id="path12"
   inkscape:connector-curvature="0"
   style="fill:#000000;stroke:none;stroke-width:38.25;stroke-linecap:butt" />
				</g>
			</g>
		</g>
	</g>
</svg>

<?xml version="1.0" encoding="UTF-8" standalone="no"?>
<!DOCTYPE svg PUBLIC "-//W3C//DTD SVG 1.1//EN" "http://www.w3.org/Graphics/SVG/1.1/DTD/svg11.dtd">
<!-- Generated by Microsoft Visio, SVG Export ExpressRoute Authorisation.svg Page-1 -->
<svg xmlns="http://www.w3.org/2000/svg" xmlns:xlink="http://www.w3.org/1999/xlink" xmlns:ev="http://www.w3.org/2001/xml-events"
		width="1.8499in" height="1.8499in" viewBox="0 0 133.193 133.193" xml:space="preserve" color-interpolation-filters="sRGB"
		class="st2">
	<style type="text/css">
	<![CDATA[
		.st1 {fill:#000000;stroke:none;stroke-linecap:butt;stroke-width:38.25}
		.st2 {fill:none;fill-rule:evenodd;font-size:12px;overflow:visible;stroke-linecap:square;stroke-miterlimit:3}
	]]>
	</style>

	<g>
		<title>Page-1</title>
		<g id="group4605-1" transform="translate(38.25,-38.25)">
			<title>ExpressRoute Authorisation</title>
			<g id="group4606-2">
				<title>Sheet.4606</title>
				<g id="shape4607-3">
					<title>Sheet.4607</title>
					<path d="M18.43 101.66 C18.43 100.59 18.07 99.53 18.07 98.82 A7.79528 7.79528 0 0 1 17.72 95.99 A27.2835 27.2835
								 0 0 1 18.43 90.67 A13.4646 13.4646 0 0 1 20.55 86.07 A15.5906 15.5906 0 0 1 23.39 82.17 L27.28 78.98
								 L31.89 77.21 L37.2 76.5 L42.52 77.21 A13.4646 13.4646 0 0 1 47.13 79.33 L51.02 82.17 L54.21 86.07
								 A24.4488 24.4488 0 0 1 55.98 90.67 A27.2835 27.2835 0 0 1 56.69 95.99 A27.2835 27.2835 0 0 1 55.98
								 101.3 A24.4488 24.4488 0 0 1 54.21 105.91 L51.02 109.81 L47.13 113 L42.52 114.77 L37.2 115.48 L32.6
								 114.77 L28.35 113.35 L28.35 119.02 L21.26 119.02 L21.26 126.11 L14.17 126.11 L14.17 133.19 L0 133.19
								 L0 120.08 L18.43 101.66 ZM3.54 129.65 L10.63 129.65 L10.63 122.56 L17.72 122.56 L17.72 115.48 L24.8
								 115.48 L24.8 108.39 L27.28 108.39 A11.6929 11.6929 -180 0 0 31.89 110.87 A14.1732 14.1732 -180 0
								 0 37.2 111.93 A13.8189 13.8189 -180 0 0 43.58 110.52 A14.8819 14.8819 -180 0 0 48.54 107.33 A14.8819
								 14.8819 -180 0 0 51.73 102.37 A13.8189 13.8189 -180 0 0 53.15 95.99 A11.6929 11.6929 -180 0 0 51.73
								 89.96 A13.4646 13.4646 -180 0 0 48.54 84.65 A14.8819 14.8819 -180 0 0 43.58 81.46 A13.8189 13.8189
								 -180 0 0 37.2 80.04 A11.6929 11.6929 -180 0 0 31.18 81.46 A13.4646 13.4646 -180 0 0 25.87 84.65
								 A14.8819 14.8819 -180 0 0 22.68 89.61 A13.8189 13.8189 -180 0 0 21.26 95.99 A9.92126 9.92126 -180
								 0 0 21.61 99.18 L22.68 102.37 L3.54 121.5 L3.54 129.65 ZM43.94 87.48 L45 88.19 C45.35 88.55 45.71
								 88.9 45.71 89.26 A2.12598 2.12598 0 0 1 46.06 90.67 A2.12598 2.12598 0 0 1 45.71 92.09 L45 93.15
								 L43.94 93.86 L41.1 93.86 L40.04 93.15 L39.33 92.09 A2.12598 2.12598 0 0 1 38.98 90.67 A2.12598 2.12598
								 0 0 1 39.33 89.26 C39.33 88.9 39.69 88.55 40.04 88.19 L41.1 87.48 L43.94 87.48 Z" class="st1"/>
				</g>
			</g>
		</g>
	</g>
</svg>
